assets/img/blog/2015/02/css3.svg

<svg height="420" viewBox="0 0 298 420" width="298" xmlns="http://www.w3.org/2000/svg"><g fill="none" fill-rule="evenodd"><path d="m233.164 15.681h-24.688l25.674 27.859v13.261h-52.882v-15.526h25.669l-25.669-27.86v-13.28h51.896zm-62.378 0h-24.688l25.673 27.859v13.261h-52.882v-15.526h25.672l-25.672-27.86v-13.28h51.897zm-61.768.631h-26.64v24.313h26.64v16.176h-45.574v-56.666h45.574zm0 0" fill="#131313"/><path d="m27.142 386.29-27.071-303.62h297.45l-27.096 303.571-121.811 33.77zm0 0" fill="#1572b6"/><path d="m148.798 394.199 98.427-27.288 23.157-259.415h-121.584zm0 0" fill="#33a9dc"/><g transform="translate(55 142)"><path d="m93.797 75.496h49.275l3.403-38.132h-52.678v-37.239h.129 93.246l-.893 9.991-9.152 102.616h-83.33zm0 0" fill="#fff"/><path d="m94.02 172.204-.163.046-41.472-11.199-2.652-29.698h-20.151-17.228l5.216 58.467 76.278 21.176.172-.048zm0 0" fill="#ebebeb"/><path d="m139.907 111.156-4.484 49.87-41.532 11.21v38.742l76.339-21.158.56-6.29 6.478-72.374zm0 0" fill="#fff"/><g fill="#ebebeb"><path d="m93.926.125v23.128 14.019.092h-89.828-.119l-.747-8.37-1.697-18.878-.89-9.991zm0 0"/><path d="m93.797 75.5v23.129 14.017.092h-40.828-.119l-.746-8.369-1.698-18.878-.89-9.991zm0 0"/></g></g></g></svg>

<?xml version="1.0" encoding="UTF-8" standalone="no"?>
<svg width="298px" height="420px" viewBox="0 0 298 420" version="1.1" xmlns="http://www.w3.org/2000/svg" xmlns:xlink="http://www.w3.org/1999/xlink" xmlns:sketch="http://www.bohemiancoding.com/sketch/ns">
    <title>Slice 1</title>
    <description>Created with Sketch (http://www.bohemiancoding.com/sketch)</description>
    <defs></defs>
    <g id="Page 1" stroke="none" stroke-width="1" fill="none" fill-rule="evenodd">
        <g id="Layer_1">
            <path d="M233.164,15.681 L208.476,15.681 L234.15,43.54 L234.15,56.801 L181.268,56.801 L181.268,41.275 L206.937,41.275 L181.268,13.415 L181.268,0.135 L233.164,0.135 L233.164,15.681 L233.164,15.681 Z M170.786,15.681 L146.098,15.681 L171.771,43.54 L171.771,56.801 L118.889,56.801 L118.889,41.275 L144.561,41.275 L118.889,13.415 L118.889,0.135 L170.786,0.135 L170.786,15.681 L170.786,15.681 Z M109.018,16.312 L82.378,16.312 L82.378,40.625 L109.018,40.625 L109.018,56.801 L63.444,56.801 L63.444,0.135 L109.018,0.135 L109.018,16.312 L109.018,16.312 Z M109.018,16.312" id="Shape" fill="#131313"></path>
            <path d="M27.142,386.29 L0.071,82.67 L297.521,82.67 L270.425,386.241 L148.614,420.011 L27.142,386.29 Z M27.142,386.29" id="Shape" fill="#1572B6"></path>
            <path d="M148.798,394.199 L247.225,366.911 L270.382,107.496 L148.798,107.496 L148.798,394.199 Z M148.798,394.199" id="Shape" fill="#33A9DC"></path>
            <g id="Group" transform="translate(55.000000, 142.000000)">
                <path d="M93.797,75.496 L143.072,75.496 L146.475,37.364 L93.797,37.364 L93.797,0.125 L93.926,0.125 L187.172,0.125 L186.279,10.116 L177.127,112.732 L93.797,112.732 L93.797,75.496 Z M93.797,75.496" id="Shape" fill="#FFFFFF"></path>
                <path d="M94.02,172.204 L93.857,172.25 L52.385,161.051 L49.733,131.353 L29.582,131.353 L12.354,131.353 L17.57,189.82 L93.848,210.996 L94.02,210.948 L94.02,172.204 Z M94.02,172.204" id="Shape" fill="#EBEBEB"></path>
                <path d="M139.907,111.156 L135.423,161.026 L93.891,172.236 L93.891,210.978 L170.23,189.82 L170.79,183.53 L177.268,111.156 L139.907,111.156 Z M139.907,111.156" id="Shape" fill="#FFFFFF"></path>
                <path d="M93.926,0.125 L93.926,23.253 L93.926,37.272 L93.926,37.364 L4.098,37.364 L3.979,37.364 L3.232,28.994 L1.535,10.116 L0.645,0.125 L93.926,0.125 Z M93.926,0.125" id="Shape" fill="#EBEBEB"></path>
                <path d="M93.797,75.5 L93.797,98.629 L93.797,112.646 L93.797,112.738 L52.969,112.738 L52.85,112.738 L52.104,104.369 L50.406,85.491 L49.516,75.5 L93.797,75.5 Z M93.797,75.5" id="Shape" fill="#EBEBEB"></path>
            </g>
        </g>
    </g>
</svg>
